X:36
T:Boyers Maggot. JBi.36
T:Byer's Maggott,aka. JBi.36
T:Bonner's Maggot,aka. JBi.36
M:C|
L:1/8
Q:1/2=80
S:James Biggins MS, Leeds, 1779.
R:.Reel
O:England
A:Yorkshire
Z:vmp.Nick Barber & Chris Partington
K:G
G>DD>E G>AB>G|A>FE>D A>Bc>A|!
B>GG>A B>cd>B|cAdB G/G/GG2:|!
|:(B/c/d) d2BcdB|(c/d/e) e2cdec|!
(B/c/d) d2efge|cAdB G/G/GG2:|

